X:219
T:The Highlands of Hasting's Reel
R:reel
C:Bruce Osborne - July 2002
Z:abc by bosborne@kos.net
M:2/4
L:1/8
K:Gmaj
D/C/|B,D GG/A/|B/c/B/A/ GF/G/|A/D/D/F/ A/D/D/F/|G/F/G/A/ BD/C/|\
B,D GG/A/|B/c/B/A/ GF/G/|A/D/D/F/ A/D/D/F/|G/B/A/F/ G:|
|:B/c/|d/B/G/B/ D/G/B/G/|D/G/B/G/ c/G/B/G/|D/F/A/F/ B/F/A/F/|G/F/G/A/ BB/c/|\
d/B/G/B/ D/G/B/G/|D/G/B/G/ c/G/B/G/|D/F/A/F/ B/F/A/F/|G/B/A/F/ G:|
